X: 13
T: Marchioness of Tavistock's Waltz
R: waltz
B: Cahusac "Annual Collection of Twenty-four favorite Country Dances For the Year 1809", p.7 #1
F: http://imslp.org/wiki/24_Country_Dances_for_the_Year_1809_%28Various%29
F: http://javanese.imslp.info/files/imglnks/usimg/0/0d/IMSLP351863-PMLP71785-wm_cahusac_24_dances_1809.pdf
Z: 2015 by John Chambers  <jc:trillian.mit.edu>
M: 3/8
L: 1/16
K: C
% - - - - - - - - - - - - - - - - - - - - - - - - - - - - -
(cd) |\
e2e2e2 | f2e2f2 | g4a2 | g4(eg) |\
f2f2f2 | e2e2e2 | d2d2(fe) | d4(cd) |\
e2e2e2 | (f2e2f2) | g4^g2 | a2b2c'2 |
g2e2c2 | d2g4 | .e2(efde) | c4 H:|\
(Bc) |\
d2d2d2 | e4g2 | ^fgabc'a | b2g2 (Bc) |\
d2d2d2 | e4g2 | ^fgabc'a | "_D.C."g4 |]
% - - - - - - - - - - Dance description - - - - - - - - - -
%%begintext align
%% Hey on your own sides, then contrary sides, Down
%% the mid: up again, Pousette.
%%endtext

%%sep 1 1 500
%%sep 1 1 500
